X: 1
T:Gan Ainm
S:John Walsh <walsh@MATH.UBC.CA>, irtrad-l, 4/94
M:6/8
K:G
DE|~F3 {c}AGG|{c}AFD {c}GEA|~D3 c2A|ded cAG|EFF {c}AGG|{c}AFD {c}GEA|~D3
{c}GEA|~D3 D2:|
AB|~c3 cBc|dcA {c}GEA|~D3 c2A|ded cAB|cBc .e.d.d|{g}ecA GEA|~D3 {c}GEA|~D3
D2:|
